X:1
T:Near the Cross
T:Text: Fanny J. Crosby (1820-1915) Tune: William H. Doane (1832-1915)
T:76 76 Refrain NEAR THE CROSS www.hymnary.org/text/jesus_keep_me_near_the_cross
T:Near the Cross
T:This hymn is in the public domain.  You may freely use this score for personal and congregational worship.  If you reproduce the score, please credit Hymnary.org as the source. 
T:This hymn is in the public domain.  You may freely use this score for personal and congregational worship.  If you reproduce the score, please credit Hymnary.org as the source. 
Z:This hymn is in the public domain.  You may freely use this score for personal and congregational worship.  If you reproduce the score, please credit Hymnary.org as the source.
%%score ( 1 2 ) ( 3 4 )
L:1/8
M:6/4
K:F
V:1 treble nm="Piano" snm="Pno."
V:2 treble 
V:3 bass nm="Piano" snm="Pno."
V:4 bass 
V:1
 [FA]4 [FB]2 [FA]4 [EG]2 | [DF]4 D2 D6 | [A,C]4 [CF]2 [CF]4 [FA]2 | [FA]6 [EG]6 | %4
w: 3~Near the cross! O|Lamb of God,|bring its scenes be-|fore me;|
w: 1~Je- sus, keep me|near the cross;|there a pre- cious|foun- tain,|
w: 2~Near the cross, a|trem- bling soul,|love and mer- cy|found me;|
 [FA]4 [FB]2 [FA]4 [EG]2 | [DF]4 D2 [B,D]6 | [A,C]4 [CF]2 [CF]4 [CE]2 | [EG]6 F6 || %8
w: help me walk from|day to day|with its sha- dow|o'er me.|
w: free to all, a|heal- ing stream,|flows from Cal- vary's|moun- tain.|
w: there the bright and|mor- ning star|sheds its beams a-|round me.|
"^Refrain" [FA]4 [Fc]2 [Fc]6 | [FB]4 [Fd]2 [Fd]6 | [Fc]4 [Fd]2 [Fc]4 [FA]2 | [FA]6 [EG]6 | %12
w: In the cross,|in the cross,|be my glo- ry|e- ver,|
w: ||||
w: ||||
 [CA]4 [DB]2 [CA]4 [^CG]2 | [DF]4 D2 [B,D]6 | [A,C]4 [CF]2 [CF]4 [CE]2 | [EG]6 F6 |] %16
w: till my rap- tured|soul shall find|rest be- yond the|ri- ver.|
w: ||||
w: ||||
V:2
 x12 | x2 x2 D2 D6 | x12 | x12 | x12 | x2 x2 D2 x6 | x12 | x6 F6 || x12 | x12 | x12 | x12 | x12 | %13
 x2 x2 D2 x6 | x12 | x6 F6 |] %16
V:3
 [F,C]4 [F,D]2 [F,C]4 [C,B,]2 | [D,A,]4 [B,,B,]2 [B,,B,]6 | [F,A,]4 [F,A,]2 [F,A,]4 [F,C]2 | %3
 [C,C]6 [C,C]6 | [F,C]4 [F,D]2 [F,C]4 [C,B,]2 | [D,A,]4 [B,,B,]2 [B,,F,]6 | %6
 [C,F,]4 [C,A,]2 [C,A,]4 [C,G,]2 | [C,B,]6 [F,A,]6 || [F,C]4 [F,A,]2 [F,A,]6 | [B,D]4 B,2 B,6 | %10
 [F,A,]4 [F,B,]2 [F,A,]4 [F,C]2 | [C,C]6 [C,C]6 | [F,A,]4 G,2 [F,A,]4 [E,A,]2 | %13
 [D,A,]4 [B,,B,]2 [B,,F,]6 | [C,F,]4 [C,A,]2 [C,A,]4 [C,G,]2 | [C,B,]6 [F,A,]6 |] %16
V:4
 x12 | x12 | x12 | x12 | x12 | x12 | x12 | x12 || x12 | x2 x2 B,2 B,6 | x12 | x12 | x2 x2 F,2 x6 | %13
 x12 | x12 | x12 |] %16

